public/d12.svg

<svg class="die-svg" width="80" height="86" viewBox="-8 0 96 86">
<path class="face" d="m1 55.399v-24.579l14.746-19.76c0.4814-0.645 1.1461-1.1298 1.9074-1.391l22.346-7.6685 22.864 7.6593c0.796 0.26663 1.4878 0.77686 1.9777 1.4586l14.158 19.702v24.62c0 0.8559-0.2746 1.6893-0.7834 2.3776l-13.378 18.099c-0.3076 0.4162-0.6913 0.7663-1.1279 1.0337-0.256 0.1568-0.5303 0.2851-0.8182 0.3815l-21.606 7.2379c-0.8341 0.2794-1.737 0.2761-2.569-0.0094l-22.232-7.6292-14.658-19.096c-0.5363-0.6986-0.82701-1.5548-0.82701-2.4356z" />
<path class="edges" d="m1 30.819v24.579c0 0.8808 0.29071 1.737 0.82701 2.4356l14.658 19.096m-15.485-46.111 14.746-19.76c0.4814-0.645 1.1461-1.1298 1.9074-1.391l22.346-7.6685m-39 28.819 13.191 4.0348m25.809-32.854 22.864 7.6593c0.796 0.26663 1.4878 0.77686 1.9777 1.4586l14.158 19.702m-39-28.819v13.257m39 15.562v24.62c0 0.8559-0.2746 1.6893-0.7834 2.3776l-13.378 18.099c-0.4881 0.6603-1.1675 1.1544-1.9461 1.4152l-21.606 7.2379c-0.8341 0.2794-1.737 0.2761-2.569-0.0094l-22.232-7.6292m62.515-46.111-13.765 4.0348m-48.75 42.076 7.4559-12.104h31.544m-31.544 0-9.75-29.972m41.294 29.972 8.6029 12.68m-8.6029-12.68 9.75-29.972-25.235-19.597-25.809 19.597" />
</svg>

<svg width="80" height="86" class="die-svg" viewBox="-8 0 96 86"><path d="M1 55.399V30.82l14.746-19.76a4 4 0 0 1 1.907-1.391L40 2l22.864 7.66a4 4 0 0 1 1.978 1.458L79 30.82v24.62a4 4 0 0 1-.783 2.378L64.838 75.917a4 4 0 0 1-1.946 1.415L41.286 84.57a4 4 0 0 1-2.57-.01l-22.231-7.629L1.827 57.837A4 4 0 0 1 1 55.4z" class="face"/><path d="M1 30.819v24.579a4 4 0 0 0 .827 2.436L16.485 76.93M1 30.819l14.746-19.76a4 4 0 0 1 1.907-1.391L40 1.999M1 30.82l13.191 4.034M40 1.999l22.863 7.66a4 4 0 0 1 1.978 1.458L79 30.819M40 1.999v13.258m39 15.562v24.62a4 4 0 0 1-.783 2.377l-13.378 18.1a4 4 0 0 1-1.946 1.415l-21.606 7.238a4 4 0 0 1-2.57-.01l-22.231-7.63M79 30.82l-13.765 4.035M16.485 76.93l7.456-12.104h31.544m-31.544 0-9.75-29.972m41.294 29.972 8.602 12.68m-8.602-12.68 9.75-29.972L40 15.257 14.19 34.854" class="edges"/></svg>
